X:361
T: Das erwhlte Schtzchen (92), S.238
N: T0250
O: Luxemburg
S: Singendes Volk, Esch-Alzette 1937 posth.]
N: Heffingen, hhh Nikolaus Ewen, 2.6.1935
R: Liebeslieder]
M: 3/4
L: 1/8
K: G
D2 | G2D2GB | d4c2 | B2B2
GB | d2B2e2 | d2c2A2 | B2z2
d2 | B2d2ed | cde2
dc | B2B2dB | A2z2
GA | B2c2d2 | e2d2cA | B2z2

